X: 65
T:Devanny's Goat
S:Kevin Burke
D:Patrick Street CD "Cornerboys"
Z:Barney
M:4/4
L:1/8
K:G
DF (3FFF AFAB|dffe dBAF|DF (3FFF BFAF|~E2 ED EGFE|
DF (3FFF AFAB|dffe dB A2|fedB AFDF|AFEF D2 FE||
DF (3FFF AFAB|dffe dBAF|DF (3FFF BFAF|ED^CD EFGE|
DF (3FFF AFAB|dffe dB A2|fedB AFDF|AFEF D4||
|:fa (3aaa afdf|afef dB (3BBB|ABde fAdf|e2 ef edBd|
Ad (3ddd fd (3ddd|edfd edBd|A2 dB AFDF|AFEF D4:||
